X:1
T:Maudabawn Chapel
R:reel
M:4/4
L:1/8
K:G
|:~G2GD EGDB,|G,A,B,D EGDB,|G,A,B,D GA (3Bcd|gabg ea~a2|
|gabg eage|dged Bcd2|(3efg fa gedB|1 AdBA GEEF:|2 AdBA GEED|]
|:~E2BE dEBE|~E2dB AFDF|~E2EF GFGB|~A2FD A,DFD|
|EB~B2 dBBA|BedB ABde|~f2fa gfeB|1 dBAF GEED:|2 dBAF GEEF|]